X:20
T:Alan MacPhearson of Mosspark
R:Jig
M:6/8
L:1/8
K:Hp
a | fae fce | AAA ace | dcc ceA | cBB BBa |
fae fce | AAA ace | dcc eBe | A3 A2 :|
e | A2e fga | f2a fec | dcc ceA | cBB BBe |
[1 A2e fga | f2a fec | dcceBe | A3 A2 :|
[2 fae fce | AAA ace | dcc eBe | A3 A2 ||
a | A2c AAA | ece fec | dcc ceA | cBB BBa |
A2c AAA | ece fec | dcc eBe | A3 A2 :|
e | (4aaaa a2e | aef ceA | dcc ceA | cBB BBe |
[1 (4aaaa a2e | aef ceA | dcc eBe | A3 A2 :|
[2 fae fce | AAA ace | dcc eBe | A3 A2 |]
